X:1
T:6 Lieder, Op.1
T:Mayenlied
T:6 Lieder, Op.1
T:4. Mayenlied
T:Fanny (Mendelssohn) Hensel
T:Joseph von Eichendorff
T:OpenScore (CC0)
T:OpenScore (CC0)
T:OpenScore (CC0)
C:Fanny (Mendelssohn) Hensel
Z:Joseph von Eichendorff
Z:OpenScore (CC0)
%%score 1 { ( 2 4 ) | ( 3 5 ) }
L:1/8
Q:1/4=92
M:3/4
K:G
V:1 treble nm="Gesang\nVoice"
V:2 treble nm="Piano"
V:4 treble 
V:3 bass 
V:5 bass 
V:1
"^Allegretto" z6 | z6 | z6 | z2 z2 d3/2 B/ | G2 z G g e | d2 c2 e c | (B2 A) A e ^A | %7
w: |||Läu- ten|kaum die May- en-|glo- cken, lei- se|durch * den lau- en|
 B2 z2 F3/2 F/ | f2- (3fe ^d (3^cd c | B2 F2 F3/2 F/ | f2- (3fe ^d (3^cd c | B2 z2 z2 | %12
w: Wind, hebt ein|Kna- * * be froh * er-|schro- cken, aus dem|Gra- * * se sich * ge-|schwind.|
 c B{/d} c B c ^c | e2 d2 z2 | c B{/d} c B c ^c | e2 d2"^cresc." d d | g3 d =f e | %17
w: Schüt- telt in den Blü- then-|flo- cken,|sei- ne fei- nen blon- den|Lo- cken, schel- misch|sin- nend wie ein|
 e4"^dim." (3dc B | (3^GA c e3 F | G2 z2 z2 | z6 | z6 | z2 z2 d B | G3 G g e | d2 c2 e c | %25
w: Kind schel- * misch|sin- * nend wie ein|Kind.|||Und nun|we- hen Ler- chen-|lie- der und es|
 (B2 A3/2) A/ e3/2 ^A/ | B2 z2 F3/2 F/ | f2- (3fe ^d (3^cd c | B2 F2 F F | f2- (3fe ^d (3^cd c | %30
w: schlägt * die Nach- ti-|gall, von den|Ber- * * gen rau- * schend|wie- der kommt der|küh- * * le Was- * ser-|
 B2 z2 z2 | c B{/d} c B c ^c | e2 d2 z2 | c B{/d} c B c ^c | e2 d z d!f! d | g3 d =f e | %36
w: fall|Rings im Wal- de bunt Ge-|fie- der,|Früh- ling, Früh- ling ist es|wie- der, und ein|Jauch- zen ü- ber-|
 e2 z2 (3dc"^dim." B | (3^GA c e3 F | G2 z2!mf! d d | g3 d B G | e3 d c B | (3!turn!A^G A =e2 F2 | %42
w: all, und * ein|Jauch- * zen ü- ber-|all Früh- ling,|Früh- ling ist es|wie- der und ein|Jauch- * zen ü- ber-|
 G2 z2 z2 | z6 |[Q:1/4=86] z6[Q:1/4=82][Q:1/4=78] | z6 |] %46
w: all.||||
V:2
!p! (3z [Bd'][Bc'] (3[Bb][Ba][Bg] (3[Bf]gb | (3z [Bb][Ba] (3[Bg][Bf][Be] (3[B^c]dg | %2
 (3z!>(! [Gf][Ge] (3[Gd][Gc][GB] (3[F^G]!>)!Ae | (3[F^G]Ae d2!p! (3[B,D=GB][B,DG][B,DG] | B4 B2 | %5
 (3d[EG][EG] (3c[EG][EG] (3e[EG][EGc] | (3B[D=F][DF] (3A[CE][CE] (3^A[CE][CE] | %7
 (3[B,EB]FE (3^DB,D (3FB^d | (3f^DD (3[DF]DD [EF]F | f2- (3fe^d (3^cdc | B2 F2 FF | %11
 f2- (3fe^d (3^cdB | [EA=c][^DB][EAc][DB]([EAc]^c) | %13
 (3!arpeggio!.[Adfc'].[cb].[ca] (3.[cg].[cf].[ce] (3[Ad][Ac][AB] | [EAc][^DB][EAc][DB][EAc]^c | %15
 (3!arpeggio![Adfc'][cb][ca] (3[cg][cf][ce]"_cresc." (3d[DFc][DFA] | %16
 (3z [DGd][DGd] (3[DGd][DGd][DGd] (3z [=FAd][FAd] | %17
 (3z [EBd][EBd] (3z [EAc][EAc]!p! (3z [D^GB][DGB] | [CEA]4 [CDF]2 | %19
 (3[B,DG][Bd'][Bc'] (3[Bb][Ba][Bg] (3[Bf]gb | (3z [Bb][Ba] (3[Bg][Bf][Be] (3[B^c]dg | %21
 (3z [Gf][Ge] (3[Gd][Gc][GB] (3[F^G]Ae | (3[F^G]Ae d2 B2 | B4 B2 | d2 c2 ec | B2 A2 ^A2 | B2 x4 | %27
 f2 F2 FF | f2- (3fe^d (3^cdc | B2 F2 FF | f2- (3fe^d (3^cdB | [EA=c][^DAB][EAc][DAB][EAc]^c | %32
 (3!arpeggio![Adfc'][cb][ca] (3[cg][cf][ce] (3[Ad][Ac][AB] |"_cresc." [EAc][^DB][EAc][DB][EAc]^c | %34
 (3!arpeggio![Adfc'][cb][ca] (3[cg][cf][ce] (3d[DFc][DFA] | d4 x2 | %36
 (3d[EB][EB] (3c[EA][EA] (3B[D^G][DG] | (3[E^G]Ac e2 [A,C]2 | %38
 (3[G,B,][Bd'][Bc'] (3[Bb][Ba][Bg] (3[Bf]gb | (3z [Bb][Ba] (3[Bg][Bf][Be] (3[B^c]dg | %40
 (3z [Ff][Fe] (3[Fd][Fc][FB] (3[F^G]Ac | (3!turn![CF]^EF c2 [A,C]2 | %42
 (3[G,B,]"_dim."[Bd'][Bc'] (3[Bb][Ba][Bg] (3[Bf]gb | (3z [Bb][Ba] (3[Bg][Bf][Be] (3[B^c]dg | %44
 (3[G^A]Bd (3[DF]GB (3[B,^C]DB |!p! !fermata![B,DG]4 z2 |] %46
V:3
 (3[G,,G,][G,D][G,D] (3[G,D][G,D][G,D] [G,D]2 | (3[G,,G,][G,D][G,D] (3[G,D][G,D][G,D] [G,D]2 | %2
 (3[G,,G,][G,B,D][G,B,D] (3[G,B,D][G,B,D][G,B,D] [G,CD]2 | [G,CD]4 [G,,G,]2 | [F,,F,]4 [E,,E,]2 | %5
 B,2 C2 G,2 | ^G,2 A,2 =G,2 | (3[B,,G,]A,G, (3F,^D,F, (3B,^DF | %8
 (3F,,[F,B,][F,B,] (3[F,B,][F,B,][F,B,] (3[F,^A,]B,A, | %9
 (3F,,[F,B,][F,B,] (3[F,B,][F,B,][F,B,] (3[F,^A,]B,A, | %10
 (3F,,[F,B,][F,B,] (3[F,B,][F,B,][F,B,] (3[F,^A,]B,A, | (3B,,[B,^D][B,D] (3[B,D]^GF (3EFD | %12
 [A,,A,] z z2 z2 | (3[D,,D,][K:treble].[DA].[DA] (3.[DA].[DA].[DA] (3[DF][DF][DF] | %14
[K:bass] [A,,A,] z z2 z2 | (3[D,,D,][K:treble][DA][DA] (3[DA][DA][DA][K:bass] [C,C]2 | %16
 [B,,B,]4 [A,,A,]2 | [^G,,^G,]2 [A,,A,]2 [B,,B,]2 | [C,,C,]4 [D,,D,]2 | %19
 (3[G,,G,][G,D][G,D] (3[G,D][G,D][G,D] [G,D]2 | (3G,,[G,D][G,D] (3[G,D][G,D][G,D] [G,D]2 | %21
 (3G,,[G,B,D][G,B,D] (3[G,B,D][G,B,D][G,B,D] [G,CD]2 | [G,CD]4 [G,,G,]2 | [F,,F,]4 [E,,E,]2 | %24
 B,2 C2 G,2 | ^G,2 A,2 =G,2 | (3[B,,G,B,]A,G, (3F,^D,F, (3B,^DF | %27
 (3F,,[F,B,][F,B,] (3[F,B,][F,B,][F,B,] (3[F,^A,]B,A, | %28
 (3F,,[F,B,][F,B,] (3[F,B,][F,B,][F,B,] (3[F,^A,]B,A, | %29
 (3F,,[F,B,][F,B,] (3[F,B,][F,B,][F,B,] (3[F,^A,]B,A, | (3B,,[B,^D][B,D] (3[B,D]^GF (3EFD | %31
 [A,,A,] z z2 z2 | (3[D,,D,][K:treble][DA][DA] (3[DA][DA][DA] (3[DF][DF][DF] | %33
[K:bass] [A,,A,]2 z2 z2 | (3[D,,D,][K:treble][DA][DA] (3[DA][DA][DA][K:bass] [C,C]2 | %35
 [B,,B,]4 [A,,A,]2 | [^G,,^G,]2 [A,,A,]2 B,,2 | C,4 [D,,D,]2 | %38
 (3G,,[G,D][G,D] (3[G,D][G,D][G,D] [G,D]2 | (3G,,[G,D][G,D] (3[G,D][G,D][G,D] [G,D]2 | %40
 (3G,,[G,A,D][G,A,D] (3[G,A,D][G,A,D][G,A,D] [G,A,D]2 | [G,,D,A,]4 [G,,,G,,]2 | %42
 (3[G,,,G,,][G,D][G,D] (3[G,D][G,D][G,D] [G,D]2 | (3G,,[G,D][G,D] (3[G,D][G,D][G,D] [G,D]2 | %44
 D2 B,2 [G,,D,G,]2 | !fermata![G,,,G,,]4 z2 |] %46
V:4
 x6 | x6 | x6 | x6 | (3[B,DG][B,DG][B,DG] (3[B,DG][B,DG][B,DG] (3[B,EG][B,EG][B,EG] | x6 | x6 | %7
 x6 | x6 | (3z ^DD (3DDD [EF]2 | (3z ^DD (3DDD E2 | (3z [FB][FB] [FB]2 x2 | x6 | x6 | x6 | x6 | %16
 x6 | x6 | x6 | x6 | x6 | x6 | x4 [B,D^G][B,DG] | %23
 (3[B,DG][B,DG][B,DG] (3[B,DG][B,DG][B,DG] (3z [B,EG][B,EG] | %24
 (3z [EG][EG] (3z [EG][EG] (3z [EG][EG] | (3z [D=F][DF] (3z [CE][CE] (3z [CE][CE] | %26
 (3EFE (3^DB,D (3FB^d | (3z ^DD (3DDD E2 | (3z ^DD (3DDD [EF]2 | (3z ^DD (3DDD E2 | %30
 (3z [FB][FB] [FB]2 z2 | x6 | x6 | x6 | x6 | (3z [DG][DG] (3[DG][DG][DG] (3d[D=FA][DFA] | x6 | x6 | %38
 x6 | x6 | x6 | x6 | x6 | x6 | x6 | x6 |] %46
V:5
 x6 | x6 | x6 | x6 | x6 | E,4 C,2 | C,4 C,2 | x6 | x6 | x6 | x6 | x6 | x6 | x2/3[K:treble] x16/3 | %14
[K:bass] x6 | x2/3[K:treble] x10/3[K:bass] x2 | x6 | x6 | x6 | x6 | x6 | x6 | x6 | x6 | E,4 C,2 | %25
 C,4 C,2 | x6 | x6 | x6 | x6 | x6 | x6 | x2/3[K:treble] x16/3 |[K:bass] x6 | %34
 x2/3[K:treble] x10/3[K:bass] x2 | x6 | x6 | x6 | x6 | x6 | x6 | x6 | x6 | x6 | G,4 x2 | x6 |] %46

